X:455
T:Binbili bonbolo
Z:Jack Campin, http://www.campin.me.uk/
F:Jack Campin's Nine-Note Tunebook
% last edit 03-02-2013
B:Vingt-cinq Chansons d'Euskal Herria, Bayonne 1928
M:2/4
L:1/8
Q:1/4=120
K:AMin
E2  EE |A2 AA|^G2 B2|A4   |c2 cB|d2 cB| A2 ^G2|A4 |
c2  cc |c2 G2| A2 AA|A2 E2|F2 F2|E2 A2|^G2  B2|A4 |
E2 ^F^G|A2 AA|^G2 B2|A4   |c2 cB|d2 cB| A2 ^G2|A4 |
c2  cc |c2 G2| A2 AA|A2 E2|F2 F2|E2 A2|^G2  B2|A4|]

